X:1
T:Komm, O Komm, Du Geist, 87.87.77
T:Komm, O Komm, Du Geist, 87.87.77
T:Johann Christoph Bach, 1680
T:Public Domain Courtesy of the Cyber Hymnal™
C:Johann Christoph Bach, 1680
Z:Public Domain
Z:Courtesy of the Cyber Hymnal™
%%score 1 ( 2 3 )
L:1/8
Q:1/4=112
M:4/4
K:G
V:1 treble 
V:2 bass 
V:3 bass 
V:1
 [DB]2 [EG]2 [DA]2 [Fd]2 | [DG]2 [EA]2 [DF]2 [A,D]2 | [CE]2 [CF]2 [DG]2 [B,G]2 | %3
 [EA]2 [Dd]2 [DB]4 | [DB]2 [EG]2 [DA]2 [Fd]2 | [DG]2 [EA]2 [DF]2 [A,D]2 | %6
 [CE]2 [CF]2 [DG]2 [B,G]2 | [EA]2 [Dd]2 [DB]4 | [DB]2 [EG]2 [DA]2 [Fd]2 | [Ed]2 [E^c]2 [Fd]4 | %10
 [Ge]2 [Fd]2 [Gc]2 [GB]2 | [GA]2 [FA]2 [DG]4 |] %12
V:2
 G,2 [E,B,]2 [F,A,]2 [D,A,]2 | [B,,B,]2 [^C,A,]2 [D,A,]2 [D,F,]2 | %2
 [C,G,]2 [A,,A,]2 [B,,G,]2 [E,G,]2 | [C,G,]2 [D,F,]2 [G,,G,]4 | G,2 [E,B,]2 [F,A,]2 [D,A,]2 | %5
 [B,,B,]2 [^C,A,]2 [D,A,]2 [D,F,]2 | [C,G,]2 [A,,A,]2 [B,,G,]2 [E,G,]2 | [C,G,]2 [D,F,]2 [G,,G,]4 | %8
 G,2 [E,B,]2 [F,A,]2 [D,A,]2 | [G,B,]2 A,2 [D,A,]4 | [C,C]2 [D,A,]2 [E,C]2 [G,D]2 | %11
 [C,E]2 [D,D]2 [G,,B,]4 |] %12
V:3
 G,2 x6 | x8 | x8 | x8 | G,2 x6 | x8 | x8 | x8 | G,2 x6 | x2 A,2 x4 | x8 | x8 |] %12

